X:1
T:Children at Play
T:02. Children's Song
T:Béla Bartok
T:Based on Hugarian Folk Tunes
C:Bela Bartok
%%score { 1 | 2 }
L:1/8
Q:1/4=74
M:2/4
K:C
V:1 treble nm="Piano" snm="Pno."
V:2 bass 
V:1
"^Andante,"!p! !tenuto!G2 (FA) | !tenuto!G2 z2 | !tenuto!G2 (FA) | !tenuto!G2 z2 | (GA!<(!GF | %5
 ED!<)!!>(!EF) | (E2 D2) | C4!>)! | G2 (FA) | G2 z2 | G2 (FA) | G2 z2 | (GA!<(!GF | ED!<)!EF) | %14
!>(! (E2 D2)!>)! |!>(! C4 |!>(! (E2!>)! D2) | C4!>)! | z4 | z4 |!pp! G2 (FA) | G2 z2 | G2 (FA) | %23
 G2 z2 |!<(! (GAGF | ED!<)!EF) |!p!!>(! E4 | D4!>)! |!pp! !fermata!C4 |] %29
"^03"[Q:1/4=65]"^Quasi adagio,"!p!!<(! (Ae)(ed)!<)! |!>(! (e2 cA)!>)! |!<(! (Ae)(ed)!<)! | %32
!>(! (e2 cA)!>)! |!>(! (e2 cA | A2 B2 | c)!>)!(cB)c | A2 !^!A2- | A4- | A4 |!<(! (Ae)(ed)!<)! | %40
!>(! (e2 cA)!>)! |!<(! (Ae)(ed)!<)! |!>(! (e2 cA)!>)! |!>(! (e2 cA) | A2 B2!>)! |"_dim." c(cB)B | %46
 A2 A2 |!pp! A4 |"_smorzando" A4 | A4 | A2 !>!A2 | A4 | A4 | A4 |] %54
V:2
 !tenuto![C,E,]2 ([C,D,]F,) | !tenuto![C,E,]2 z2 | !tenuto![C,E,]2 ([C,D,]F,) | %3
 !tenuto![C,E,]2 z2 | z4 | [F,A,]4 | ([G,C]2 B,2) | [C,E,G,]4 | z4 | ([E,B,]2 [A,C]2 | %10
 [E,B,]2) z2 |!<(! ([E,B,]2 [A,^C]2 | [_B,D]2)!<)! z2 | [F,A,]4- | [F,A,]4 | ([F,A,]2 E,2 | %16
 A,,2) z2 |!>(! ([F,A,]2 E,2)!>)! |!>(! ([F,A,]2 E,2)!>)! | ([F,A,]2 E,2) | z4 | %21
 [F,_B,]2 ([F,A,]C) | [F,_B,]4 | [E,_B,]2 ([D,G,]B,) | [^C,A,]2 z2 | [F,A,]4 | %26
!ped! [G,C]4!ped-up! |!ped! [G,,F,]4!ped-up! |!ped! !fermata![C,E,]4!ped-up! |] %29
[K:treble] z2 ([A,E]2 | [D^F]4) | z2 ([A,E]2 | [D^F]4) | z2 ([A,E]2 | [D^F]4) | z2 ([A,E]2 | %36
 [D^F]4) | z2 ([A,E]2 | [D^F]4) | z2!<(! ([A,E]2!<)! |!>(! [D^F]2!>)! [A,E]2) | %41
 z2!<(! ([A,E]2!<)! |!>(! [D^F]2!>)! [A,E]2) | z2!<(! ([A,E]2 | [D^F]2)!<)!!>(! ([G,^F]2 | %45
 [CE]2) ([G,D]2!>)! | [A,E]4) | z2!<(! ([A,E]2!<)! |!>(! [D^F]2!>)! [A,E]2) | %49
!>(! ([D^F]2 [A,E]2)!>)! |!>(! ([D^F]4- | [DF]4 | [A,E]4- | [A,E]4)!>)! |] %54

